flags/ma.svg

<svg width="512" height="512" viewBox="0 0 512 512" fill="none" xmlns="http://www.w3.org/2000/svg">
<rect width="512" height="512" fill="var(--flag-palette-bright-red, #d80027)"/>
<path fill-rule="evenodd" clip-rule="evenodd" d="M285.247 215.746L256 125.732L226.753 215.746H132.107L208.677 271.377L179.43 361.39L256 305.759L332.57 361.39L303.323 271.377L379.892 215.746L285.247 215.746ZM240.701 215.755L256 168.67L271.299 215.755H240.701ZM275.601 229.023H236.398L224.284 266.307L255.999 289.349L287.715 266.305L275.601 229.023ZM222.45 229.014L212.995 258.114L172.943 229.014H222.45ZM219.966 279.57L204.668 326.654L244.719 297.554L219.966 279.57ZM267.279 297.554L292.033 279.569L307.332 326.654L267.279 297.554ZM299.005 258.114L339.057 229.014L289.55 229.014L299.005 258.114Z" fill="var(--flag-palette-green, #6da544)"/>
<path d="M256 125.732L256.951 125.423L256 122.496L255.049 125.423L256 125.732ZM285.247 215.746L284.296 216.055L284.52 216.746H285.247V215.746ZM226.753 215.746V216.746H227.479L227.704 216.055L226.753 215.746ZM132.107 215.746V214.746H129.029L131.519 216.555L132.107 215.746ZM208.677 271.377L209.628 271.686L209.852 270.995L209.265 270.568L208.677 271.377ZM179.43 361.39L178.479 361.081L177.528 364.008L180.018 362.199L179.43 361.39ZM256 305.759L256.587 304.95L256 304.523L255.412 304.95L256 305.759ZM332.57 361.39L331.982 362.199L334.472 364.008L333.521 361.081L332.57 361.39ZM303.323 271.377L302.735 270.568L302.147 270.995L302.371 271.686L303.323 271.377ZM379.892 215.746L380.48 216.555L382.97 214.746H379.892V215.746ZM240.701 215.755L239.75 215.446L239.324 216.755H240.701V215.755ZM256 168.67L256.951 168.36L256 165.433L255.049 168.36L256 168.67ZM271.299 215.755V216.755H272.675L272.25 215.446L271.299 215.755ZM275.601 229.023L276.552 228.714L276.328 228.023H275.601V229.023ZM236.398 229.023V228.023H235.672L235.447 228.714L236.398 229.023ZM224.284 266.307L223.333 265.998L223.108 266.689L223.696 267.116L224.284 266.307ZM255.999 289.349L255.411 290.158L255.999 290.585L256.587 290.158L255.999 289.349ZM287.715 266.305L288.303 267.115L288.891 266.687L288.666 265.996L287.715 266.305ZM212.995 258.114L212.407 258.923L213.521 259.732L213.946 258.423L212.995 258.114ZM222.45 229.014L223.401 229.323L223.826 228.014H222.45V229.014ZM172.943 229.014V228.014H169.865L172.355 229.823L172.943 229.014ZM204.668 326.654L203.716 326.345L202.765 329.272L205.255 327.463L204.668 326.654ZM219.966 279.57L220.554 278.761L219.44 277.952L219.015 279.261L219.966 279.57ZM244.719 297.554L245.307 298.363L246.421 297.554L245.307 296.745L244.719 297.554ZM292.033 279.569L292.984 279.26L292.559 277.951L291.445 278.76L292.033 279.569ZM267.279 297.554L266.691 296.745L265.578 297.554L266.691 298.363L267.279 297.554ZM307.332 326.654L306.744 327.463L309.234 329.272L308.283 326.345L307.332 326.654ZM339.057 229.014L339.645 229.823L342.135 228.014H339.057V229.014ZM299.005 258.114L298.054 258.423L298.479 259.732L299.592 258.923L299.005 258.114ZM289.55 229.014V228.014H288.173L288.599 229.323L289.55 229.014ZM255.049 126.041L284.296 216.055L286.198 215.437L256.951 125.423L255.049 126.041ZM227.704 216.055L256.951 126.041L255.049 125.423L225.802 215.437L227.704 216.055ZM132.107 216.746H226.753V214.746H132.107V216.746ZM209.265 270.568L132.695 214.937L131.519 216.555L208.089 272.186L209.265 270.568ZM180.381 361.699L209.628 271.686L207.726 271.068L178.479 361.081L180.381 361.699ZM255.412 304.95L178.842 360.581L180.018 362.199L256.587 306.568L255.412 304.95ZM333.157 360.581L256.587 304.95L255.412 306.568L331.982 362.199L333.157 360.581ZM302.371 271.686L331.619 361.699L333.521 361.081L304.274 271.068L302.371 271.686ZM379.305 214.937L302.735 270.568L303.91 272.186L380.48 216.555L379.305 214.937ZM285.247 216.746L379.892 216.746V214.746L285.247 214.746V216.746ZM241.652 216.064L256.951 168.979L255.049 168.36L239.75 215.446L241.652 216.064ZM255.049 168.979L270.348 216.064L272.25 215.446L256.951 168.36L255.049 168.979ZM240.701 216.755H271.299V214.755H240.701V216.755ZM275.601 228.023H236.398V230.023H275.601V228.023ZM225.235 266.616L237.349 229.332L235.447 228.714L223.333 265.998L225.235 266.616ZM256.587 288.54L224.872 265.498L223.696 267.116L255.411 290.158L256.587 288.54ZM287.127 265.496L255.411 288.54L256.587 290.158L288.303 267.115L287.127 265.496ZM274.65 229.332L286.764 266.615L288.666 265.996L276.552 228.714L274.65 229.332ZM213.946 258.423L223.401 229.323L221.499 228.705L212.044 257.805L213.946 258.423ZM172.355 229.823L212.407 258.923L213.583 257.305L173.53 228.205L172.355 229.823ZM222.45 228.014H172.943V230.014H222.45V228.014ZM205.619 326.963L220.917 279.879L219.015 279.261L203.716 326.345L205.619 326.963ZM244.132 296.745L204.08 325.845L205.255 327.463L245.307 298.363L244.132 296.745ZM219.378 280.379L244.132 298.363L245.307 296.745L220.554 278.761L219.378 280.379ZM291.445 278.76L266.691 296.745L267.867 298.363L292.621 280.378L291.445 278.76ZM308.283 326.345L292.984 279.26L291.082 279.878L306.381 326.963L308.283 326.345ZM266.691 298.363L306.744 327.463L307.92 325.845L267.867 296.745L266.691 298.363ZM338.469 228.205L298.417 257.305L299.592 258.923L339.645 229.823L338.469 228.205ZM289.55 230.014L339.057 230.014V228.014L289.55 228.014V230.014ZM299.956 257.805L290.501 228.705L288.599 229.323L298.054 258.423L299.956 257.805Z" fill="var(--flag-palette-green, #6da544)"/>
</svg>

<svg xmlns="http://www.w3.org/2000/svg" width="512" height="512" fill="none"><path fill="var(--flag-palette-bright-red, #d80027)" d="M0 0h512v512H0z"/><path fill="var(--flag-palette-green, #6da544)" fill-rule="evenodd" d="m285.2 215.7-29.2-90-29.2 90H132l76.6 55.7-29.3 90 76.6-55.6 76.6 55.6-29.3-90 76.6-55.7zm-44.5 0 15.3-47 15.3 47zm34.9 13.3h-39.2l-12.1 37.3 31.7 23 31.7-23zm-53.2 0-9.4 29.1-40-29zm-2.4 50.6-15.3 47 40-29zm47.3 18 24.7-18 15.3 47zM299 258l40-29h-49.4z" clip-rule="evenodd"/><path fill="var(--flag-palette-green, #6da544)" d="m256 125.7 1-.3-1-2.9-1 3zm29.2 90-.9.4.2.6h.7zm-58.4 0v1h.7l.2-.6zm-94.7 0v-1h-3l2.4 1.9zm76.6 55.7 1 .3.2-.7-.6-.4zm-29.3 90-1-.3-.9 3 2.5-1.9zm76.6-55.6.6-.9-.6-.4-.6.4zm76.6 55.6-.6.8 2.5 1.8-1-3zm-29.3-90-.6-.8-.6.4.3.7zm76.6-55.7.6.9 2.5-1.9h-3.1zm-139.2 0-1-.3-.4 1.4h1.4zm15.3-47 1-.3-1-3-1 3zm15.3 47v1h1.4l-.4-1.3zm4.3 13.3 1-.3-.3-.7h-.7zm-39.2 0v-1h-.7l-.3.7zm-12.1 37.3-1-.3-.2.7.6.4zm31.7 23-.6.9.6.4.6-.4zm31.7-23 .6.8.6-.4-.2-.7zm-74.7-8.2-.6.8 1.1.8.4-1.3zm9.4-29 1 .2.4-1.3h-1.4zm-49.5 0v-1h-3l2.5 1.7zm31.8 97.6-1-.4-1 3 2.6-1.8zm15.3-47.1.6-.8-1.2-.8-.4 1.3zm24.7 18 .6.8 1.1-.8-1-.9zm47.3-18 1-.3-.4-1.3-1.2.8zm-24.7 18-.6-.9-1.1.9 1 .8zm40 29-.6.9 2.5 1.8-1-3zm31.8-97.6.5.8 2.5-1.8h-3zM299 258.1l-1 .3.5 1.3 1-.8zm-9.4-29v-1h-1.4l.4 1.2zM255 126l29.3 90 1.9-.7-29.2-90zm-27.3 90 29.3-90-2-.7-29.2 90zm-95.6.6h94.7v-2H132zm77.2 53.9-76.6-55.7-1.2 1.7 76.6 55.6zm-29 91.1 29.3-90-1.9-.6-29.2 90zm75.1-56.7-76.6 55.6 1.2 1.6 76.6-55.6zm77.8 55.6-76.6-55.7-1.2 1.7 76.6 55.6zm-30.8-89 29.2 90.1 2-.6-29.3-90zm77-56.7-76.7 55.7 1.2 1.6 76.6-55.6zm-94.2 1.8H380v-2h-94.7zm-43.5-.6 15.3-47-2-.6-15.2 47zm13.3-47 15.3 47 2-.6-15.3-47zm-14.3 47.8h30.6v-2h-30.6zm34.9 11.2h-39.2v2h39.2zm-50.4 38.6 12.1-37.3-1.9-.6-12 37.3zm31.4 22-31.7-23.1-1.2 1.6 31.7 23zm30.5-23.1-31.7 23 1.2 1.7 31.7-23zm-12.5-36.2 12.2 37.3 1.9-.6-12.1-37.3zM214 258.4l9.5-29-1.9-.7-9.5 29.1zm-41.5-28.6 40 29.1 1.2-1.6-40-29zm50-1.8H173v2h49.5zm-16.8 99 15.3-47.1-1.9-.6-15.3 47zm38.5-30.3-40 29.1 1.2 1.7 40-29.1zm-24.7-16.3 24.7 18 1.2-1.7-24.7-18zm72-1.6-24.7 18 1.2 1.6 24.7-18zm16.9 47.5-15.3-47-2 .6 15.4 47zm-41.6-28 40 29.2 1.2-1.7-40-29zm71.8-70-40 29 1 1.6 40.1-29zm-49 1.7h49.6v-2h-49.6zm10.5 27.8-9.5-29-1.9.5 9.5 29.1z"/></svg>
